addons/godot-flexbox/assets/dark/JustifyContentStartRowIcon.svg

<svg xmlns="http://www.w3.org/2000/svg" width="16" height="16" fill="none" data-wf-icon="JustifyContentStartRowIcon" viewBox="0 0 24 24"><path fill="#d6d6d6" fill-rule="evenodd" d="M1.5 0H0v24h1.5V0ZM3 6h6v12H3V6Zm7.5 0h6v12h-6V6Z" clip-rule="evenodd"/></svg>

<svg data-wf-icon="JustifyContentStartRowIcon" width="16" height="16" viewBox="0 0 24 24" fill="none" xmlns="http://www.w3.org/2000/svg"><path fill-rule="evenodd" clip-rule="evenodd" d="M1.5 0H0V24H1.5V0ZM3 6H9V18H3V6ZM10.5 6H16.5V18H10.5V6Z" fill="#d6d6d6"></path></svg>
